.local/share/icons/Gruvbox-Plus-Dark/apps/16/hw-probe.svg

<svg width="16" height="16" version="1.1" xmlns="http://www.w3.org/2000/svg">
  <defs>
    <style id="current-color-scheme" type="text/css">.ColorScheme-Text { color:#ebdbb2; } .ColorScheme-Highlight { color:#458588; }</style>
  </defs>
  <path class="ColorScheme-Text" d="m9.436 3.992c0.444-0.23 0.658-0.422 1.694-0.681 1.006-0.251 2.258-0.859 3.265-1.094-1.723 0.207-3.801 0.642-4.959 1.775zm-9.336 4.076c0.56 3.651 3.693 6.366 7.401 6.387 0.19-1e-3 0.38-6e-3 0.569-0.017 1e-3 -1e-3 3e-3 -1e-3 4e-3 -1e-3 1.486-0.107 2.906-0.652 4.082-1.566-0.165-1.078-0.724-2.271-1.929-3.656-0.253-0.477-0.418-0.825-0.514-1.167-0.2-0.71 0.333-1.522 0.532-1.911 0.317-0.617 0.584-1.478 1.055-1.943 0.824-0.813 2.263-1.234 3.534-1.655 0.398-0.133 0.751-0.105 1.166-0.195-0.385-0.215-0.866-0.295-1.258-0.301-2.094-0.031-3.369 0.286-4.214 0.194-1.071-0.116-2.073-0.707-3.387-0.692-0.243 3e-3 -0.497 0.021-0.765 0.06-1.932 0.284-3.169 1.343-4.755 3.257-0.644 0.777-1.214 1.714-1.621 2.434 0.014 0.266 0.042 0.53 0.084 0.793 5e-3 -7e-3 0.01-0.013 0.016-0.021zm6.908-4.755c0.058-0.291 0.342-0.479 0.633-0.42 0.292 0.059 0.481 0.343 0.423 0.634-0.058 0.292-0.342 0.48-0.633 0.421s-0.481-0.344-0.423-0.635z" fill="currentColor"/>
</svg>

<svg xmlns="http://www.w3.org/2000/svg" style="isolation:isolate" width="16" height="16" viewBox="0 0 16 16">
 <defs>
  <style id="current-color-scheme" type="text/css">
   .ColorScheme-Text { color:#ebdbb2; } .ColorScheme-Highlight { color:#458588; }
  </style>
  <linearGradient id="arrongin" x1="0%" x2="0%" y1="0%" y2="100%">
   <stop offset="0%" style="stop-color:#d79921; stop-opacity:1"/>
   <stop offset="100%" style="stop-color:#b57614; stop-opacity:1"/>
  </linearGradient>
  <linearGradient id="aurora" x1="0%" x2="0%" y1="0%" y2="100%">
   <stop offset="0%" style="stop-color:#83a598; stop-opacity:1"/>
   <stop offset="100%" style="stop-color:#b16286; stop-opacity:1"/>
  </linearGradient>
  <linearGradient id="fitdance" x1="0%" x2="0%" y1="0%" y2="100%">
   <stop offset="0%" style="stop-color:#8ec07c; stop-opacity:1"/>
   <stop offset="100%" style="stop-color:#458588; stop-opacity:1"/>
  </linearGradient>
  <linearGradient id="oomox" x1="0%" x2="0%" y1="0%" y2="100%">
   <stop offset="0%" style="stop-color:#458588; stop-opacity:1"/>
   <stop offset="100%" style="stop-color:#928374; stop-opacity:1"/>
  </linearGradient>
  <linearGradient id="rainblue" x1="0%" x2="0%" y1="0%" y2="100%">
   <stop offset="0%" style="stop-color:#b8bb26; stop-opacity:1"/>
   <stop offset="100%" style="stop-color:#076678; stop-opacity:1"/>
  </linearGradient>
  <linearGradient id="sunrise" x1="0%" x2="0%" y1="0%" y2="100%">
   <stop offset="0%" style="stop-color: #fe8019; stop-opacity:1"/>
   <stop offset="100%" style="stop-color: #fabd2f; stop-opacity:1"/>
  </linearGradient>
  <linearGradient id="telinkrin" x1="0%" x2="0%" y1="0%" y2="100%">
   <stop offset="0%" style="stop-color: #83a598; stop-opacity:1"/>
   <stop offset="100%" style="stop-color: #83a598; stop-opacity:1"/>
  </linearGradient>
  <linearGradient id="60spsycho" x1="0%" x2="0%" y1="0%" y2="100%">
   <stop offset="0%" style="stop-color: #fb4934; stop-opacity:1"/>
   <stop offset="25%" style="stop-color: #fabd2f; stop-opacity:1"/>
   <stop offset="50%" style="stop-color: #fe8019; stop-opacity:1"/>
   <stop offset="100%" style="stop-color: #689d6a; stop-opacity:1"/>
  </linearGradient>
  <linearGradient id="90ssummer" x1="0%" x2="0%" y1="0%" y2="100%">
   <stop offset="0%" style="stop-color: #b16286; stop-opacity:1"/>
   <stop offset="20%" style="stop-color: #8ec07c; stop-opacity:1"/>
   <stop offset="50%" style="stop-color: #fabd2f; stop-opacity:1"/>
   <stop offset="100%" style="stop-color: #458588; stop-opacity:1"/>
  </linearGradient>
  <linearGradient id="cyberneon" x1="0%" x2="0%" y1="0%" y2="100%">
    <stop offset="0" style="stop-color:#83a598; stop-opacity:1"/>
    <stop offset="1" style="stop-color:#b16286; stop-opacity:1"/>
  </linearGradient>
  <clipPath id="_clipPath_Cgviwn5Assjyw3IzLBHCvwiGaPXN9FT9">
   <rect width="16" height="16"/>
  </clipPath>
 </defs>
 <g clip-path="url(#_clipPath_Cgviwn5Assjyw3IzLBHCvwiGaPXN9FT9)">
  <rect style="fill:currentColor" class="ColorScheme-Text" fill-opacity="0" width="16" height="16"/>
  <path style="fill:currentColor" class="ColorScheme-Text" fill-rule="evenodd" d="M 9.436 3.992 C 9.88 3.762 10.094 3.57 11.13 3.311 C 12.136 3.06 13.388 2.452 14.395 2.217 C 12.672 2.424 10.594 2.859 9.436 3.992 L 9.436 3.992 L 9.436 3.992 Z M 0.1 8.068 C 0.66 11.719 3.793 14.434 7.501 14.455 C 7.691 14.454 7.881 14.449 8.07 14.438 C 8.071 14.437 8.073 14.437 8.074 14.437 C 9.56 14.33 10.98 13.785 12.156 12.871 C 11.991 11.793 11.432 10.6 10.227 9.215 C 10.227 9.215 10.227 9.215 10.227 9.215 C 9.974 8.738 9.809 8.39 9.713 8.048 C 9.513 7.338 10.046 6.526 10.245 6.137 C 10.562 5.52 10.829 4.659 11.3 4.194 C 12.124 3.381 13.563 2.96 14.834 2.539 C 15.232 2.406 15.585 2.434 16 2.344 C 15.615 2.129 15.134 2.049 14.742 2.043 C 12.648 2.012 11.373 2.329 10.528 2.237 C 9.457 2.121 8.455 1.53 7.141 1.545 C 6.898 1.548 6.644 1.566 6.376 1.605 C 4.444 1.889 3.207 2.948 1.621 4.862 C 0.977 5.639 0.407 6.576 0 7.296 C 0.014 7.562 0.042 7.826 0.084 8.089 C 0.089 8.082 0.094 8.076 0.1 8.068 L 0.1 8.068 L 0.1 8.068 Z M 7.008 3.313 C 7.066 3.022 7.35 2.834 7.641 2.893 C 7.933 2.952 8.122 3.236 8.064 3.527 C 8.006 3.819 7.722 4.007 7.431 3.948 C 7.14 3.889 6.95 3.604 7.008 3.313 Z"/>
 </g>
</svg>
